app/client/src/assets/icons/blueprintjs/20px/path-search.svg

<svg xmlns="http://www.w3.org/2000/svg" xml:space="preserve" viewBox="0 0 20 20"><path fill-rule="evenodd" d="M4 7c-.55 0-1 .45-1 1s.45 1 1 1 1-.45 1-1-.45-1-1-1zm15 11.69-5-2.5v-3.63c-.32.11-.66.22-1 .29v3.32l-6 2.57v-7.25c-.36-.27-.69-.57-1-.9v8.1l-5-2.5V10c.55 0 1-.45 1-1s-.45-1-1-1V1.31l3.43 1.71c.11-.31.24-.62.39-.92L.72.05A.545.545 0 0 0 .5 0C.22 0 0 .22 0 .5v16c0 .2.12.36.28.44l6 3c.07.04.14.06.22.06.07 0 .14-.01.2-.04l6.79-2.91 5.79 2.9c.07.03.14.05.22.05.28 0 .5-.22.5-.5v-4.21c-.31.13-.64.21-1 .21v3.19zM10 5c-.55 0-1 .45-1 1s.45 1 1 1 1-.45 1-1-.45-1-1-1zm3-1c-.55 0-1 .45-1 1s.45 1 1 1 1-.45 1-1-.45-1-1-1zm6.72-.94-1.43-.72c.2.43.36.89.48 1.36l.23.11V5.5c-.55 0-1 .45-1 1s.45 1 1 1v1.96l1 1V3.5c0-.2-.12-.36-.28-.44zm-3.69 5.56c.14-.21.27-.42.38-.65.02-.04.04-.07.05-.11.11-.22.2-.45.28-.69v-.01c.07-.24.13-.48.17-.73l.03-.17c.04-.25.06-.5.06-.76C17 2.46 14.54 0 11.5 0S6 2.46 6 5.5 8.46 11 11.5 11c.26 0 .51-.02.76-.06l.17-.03c.25-.04.49-.1.73-.17h.01c.24-.08.47-.17.69-.28.04-.02.07-.03.11-.05.23-.11.44-.24.65-.38l.18.18 3.5 3.5c.17.18.42.29.7.29a1.003 1.003 0 0 0 .71-1.71l-3.68-3.67zm-4.53.88c-2.21 0-4-1.79-4-4s1.79-4 4-4 4 1.79 4 4-1.79 4-4 4z" clip-rule="evenodd"/></svg>

<?xml version="1.0" encoding="utf-8"?>
<!-- Generator: Adobe Illustrator 17.1.0, SVG Export Plug-In . SVG Version: 6.00 Build 0)  -->
<!DOCTYPE svg PUBLIC "-//W3C//DTD SVG 1.1//EN" "http://www.w3.org/Graphics/SVG/1.1/DTD/svg11.dtd">
<svg version="1.1" id="Layer_1" xmlns="http://www.w3.org/2000/svg" xmlns:xlink="http://www.w3.org/1999/xlink" x="0px" y="0px"
	 viewBox="0 0 20 20" enable-background="new 0 0 20 20" xml:space="preserve">
<g id="Ellipse_1_copy_4">
	<g>
		<path fill-rule="evenodd" clip-rule="evenodd" d="M4,7C3.45,7,3,7.45,3,8c0,0.55,0.45,1,1,1s1-0.45,1-1C5,7.45,4.55,7,4,7z
			 M19,18.69l-5-2.5v-3.63c-0.32,0.11-0.66,0.22-1,0.29v3.32l-6,2.57v-7.25c-0.36-0.27-0.69-0.57-1-0.9v8.1l-5-2.5V10
			c0.55,0,1-0.45,1-1c0-0.55-0.45-1-1-1V1.31l3.43,1.71C4.54,2.71,4.67,2.4,4.82,2.1l-4.1-2.05l0,0C0.65,0.02,0.58,0,0.5,0
			C0.22,0,0,0.22,0,0.5v16c0,0.2,0.12,0.36,0.28,0.44l0,0l6,3l0,0C6.35,19.98,6.42,20,6.5,20c0.07,0,0.14-0.01,0.2-0.04l0,0
			l6.79-2.91l5.79,2.9l0,0C19.35,19.98,19.42,20,19.5,20c0.28,0,0.5-0.22,0.5-0.5v-4.21c-0.31,0.13-0.64,0.21-1,0.21V18.69z M10,5
			C9.45,5,9,5.45,9,6c0,0.55,0.45,1,1,1s1-0.45,1-1C11,5.45,10.55,5,10,5z M13,4c-0.55,0-1,0.45-1,1c0,0.55,0.45,1,1,1s1-0.45,1-1
			C14,4.45,13.55,4,13,4z M19.72,3.06L19.72,3.06l-1.43-0.72c0.2,0.43,0.36,0.89,0.48,1.36L19,3.81V5.5c-0.55,0-1,0.45-1,1
			c0,0.55,0.45,1,1,1v1.96l1,1V3.5C20,3.3,19.88,3.14,19.72,3.06z M16.03,8.62c0.14-0.21,0.27-0.42,0.38-0.65
			c0.02-0.04,0.04-0.07,0.05-0.11c0.11-0.22,0.2-0.45,0.28-0.69c0,0,0,0,0-0.01c0.07-0.24,0.13-0.48,0.17-0.73
			c0.01-0.06,0.02-0.11,0.03-0.17C16.98,6.01,17,5.76,17,5.5C17,2.46,14.54,0,11.5,0C8.46,0,6,2.46,6,5.5S8.46,11,11.5,11
			c0.26,0,0.51-0.02,0.76-0.06c0.06-0.01,0.11-0.02,0.17-0.03c0.25-0.04,0.49-0.1,0.73-0.17c0,0,0,0,0.01,0
			c0.24-0.08,0.47-0.17,0.69-0.28c0.04-0.02,0.07-0.03,0.11-0.05c0.23-0.11,0.44-0.24,0.65-0.38l0.18,0.18l0,0l3.5,3.5
			C18.47,13.89,18.72,14,19,14c0.55,0,1-0.45,1-1c0-0.28-0.11-0.53-0.29-0.71L16.03,8.62z M11.5,9.5c-2.21,0-4-1.79-4-4
			c0-2.21,1.79-4,4-4c2.21,0,4,1.79,4,4C15.5,7.71,13.71,9.5,11.5,9.5z"/>
	</g>
</g>
</svg>
